X:1
T:Yiddish
T:Trad. arr. Wim Verkaik
T:Ahz der Rebbe Elimelech
%%score 1 2 3 4
L:1/8
Q:1/4=96
M:4/4
K:Ab
V:1 treble nm="MusicXML Part"
V:2 treble nm="MusicXML Part"
V:3 treble-8 nm="MusicXML Part"
V:4 bass nm="MusicXML Part"
V:1
 CC | AFFF FF=EF | G=EEE EECC | F=EFG AGAB | cc- c4 FG | AABA GG=EF | GGAG FFDD | A4 B4 | %8
w: Ahz der|Reb- be E- li- me- lech iz ge-|vo- rn ze- ir frei- lach, iz ge-|vo- rn ze- ir frei- lach E- li-|me- lech, _ Hot er|op- ge- macht Hav- do- le mit dem|sha- mes Reb Naf- to- le, Un ge-|shikt di|
 A4 z CCC | AFFF FF=EF | G=EEE EECC | F=EFG AGAB | c4 z AAB | ccdc cccc | cccc ccdd | cccc cccc | %16
w: tzvei. Un az di|fi- dl- di- ke fid- ler ho- bn|fi- dl- dik ge- fi- dlt, Ho- bn|fi- dl- dik ge- fi- dlt, ho- bn|zei. Un az di|fi- dl- di- ke fid- ler ho- bn|fi- dl- dik ge- fi- dlt, ho- bn|fi- dl- dik ge- fi- dlt ho- bn|
 f4 z CCC | AFFF FF=EF | G=EEE EECC | F=EFG AGAB | cc- c4 FG | AABA GG=EF | GGAG FFDD | A4 B4 | %24
w: zei. Un az der|Reb- be E- li- me- lech iz ge-|vo- rn gor shtark frei- lach, iz ge-|vo- rn gor shtark frei- lach E- li-|me- lech, _ Hat er|ois- ge- tan dem ki- tl, un hot|on- ge- ton dos hi- tl, un ge-|shikt di-|
 A4 z CCC | AFFF FF=EF | G=EEE EECC | F=EFG AGAB | c4 z AAB | ccdc cccc | cccc ccdd | cccc cccc | %32
w: tzvei. Un az di|pai- kl- di- ke paik- ler ho- bn|pai- kl- dik ge- pai- kld, ho- bn|pai- kl- dik ge- pai- kld ho- bn|zei. Un az di|pai- kl- di- ke paik- ler ho- bn|pai- kl- dik ge- pai- kld, ho- bn|pai- kl- dik ge- pai- kld ho- bn|
 f4 z CCC | AFFF FF=EF | G=EEE EECC | F=EFG AGAB | cc- c4 FG | AABA GG=EF | GGAG FFDD | A4 B4 | %40
w: zei. Un az der|Reb- be E- li- me- lech iz ge-|vo- rn gor shtark frei- lach, iz ge-|vo- rn gor shtark frei- lach E- li-|me- lech, _ Hat er|ois- ge- tan dem ki- tl, un hot|on- ge- ton dos hi- tl, un ge-|shikt di-|
 A4 z CCC | AFFF FF=EF | G=EEE EECC | F=EFG AGAB | c4 z AAB | ccdc cccc | cccc ccdd | cccc cccc | %48
w: tzvei. Un az di|fi- dl- di- ke fid- ler ho- bn|fi- dl- dik ge- fi- dld, ho- bn|fi- dl- dik ge- fi- dld ho- bn|zei. Un az di|fi- dl- di- ke fid- ler ho- bn|fi- dl- dik ge- fi- dld ho- bn|fi- dl- dik ge- fi- dld ho- bn|
 f4 z2 z |] %49
w: zei.|
V:2
 CC | AFFF FF=EF | G=EEE EECC | F=EFG AGAB | EE- E4 FG | AABA GG=EF | GGAG FFDD | C4 C4 | F4 z4 | %9
w: Ahz der|Reb- be E- li- me- lech iz ge-|vo- rn ze- ir frei- lach, iz ge-|vo- rn ze- ir frei- lach E- li-|me- lech, _ Hot er|op- ge- macht Hav- do- le mit dem|sha- mes Reb Naf- to- le, Un ge-|shikt di|tzvei.|
 z4 z CCC | BGGG GG=EE | F=EFE FFFF | AGAB cBcd | AAAc BBGA | BBcB AAFG | AAGF GGF=E | F4 z CCC | %17
w: Un az di|fi- dl- di- ke fid- ler ho- bn|fi- dl- dik ge- fi- dlt, Ho- bn|fi- dl- dik ge- fi- dlt, ho- bn|zei. Un az di fid- ler ho- bn|fi- dl- dik ge- fi- dlt, ho- bn|fi- dl- dik ge- fi- dlt ho- bn|zei. Un az der|
 AFFF FF=EF | G=EEE EECC | F=EFG AGAB | EE- E4 FG | AABA GG=EF | GGAG FFDD | C4 C4 | F4 z4 | %25
w: Reb- be E- li- me- lech iz ge-|vo- rn gor shtark frei- lach, iz ge-|vo- rn gor shtark frei- lach E- li-|me- lech, _ Hat er|ois- ge- tan dem ki- tl, un hot|on- ge- ton dos hi- tl, un ge-|shikt di-||
 z4 z CCC | BGGG GG=EE | F=EFE FFFF | AGAB cBcd | AAAc BBGA | BBcB AAFG | AAGF GGF=E | F4 z CCC | %33
w: Un az di|pai- kl- di- ke paik- ler ho- bn|pai- kl- dik ge- pai- kld, ho- bn|pai- kl- dik ge- pai- kld ho- bn|pai- kl- di- ke paik- ler ho- bn|pai- kl- dik ge- pai- kld, ho- bn|pai- kl- dik ge- pai- kld ho- bn|zei. Un az der|
 AFFF FF=EF | G=EEE EECC | F=EFG AGAB | EE- E4 FG | AABA GG=EF | GGAG FFDD | C4 C4 | F4 z4 | %41
w: Reb- be E- li- me- lech iz ge-|vo- rn gor shtark frei- lach, iz ge-|vo- rn gor shtark frei- lach E- li-|me- lech, _ Hat er|ois- ge- tan dem ki- tl, un hot|on- ge- ton dos hi- tl, un ge-|shikt di-|tzvei.|
 z4 z CCC | BGGG GG=EE | F=EFE FFFF | AGAB cBcd | AAAc BBGA | BBcB AAFG | AAGF GGF=E | F4 z2 z |] %49
w: Un az di|fi- dl- di- ke fid- ler ho- bn|fi- dl- dik ge- fi- dld, ho- bn|fi- dl- dik ge- fi- dld ho- bn|zei. Un az di fid- ler ho- bn|fi- dl- dik ge- fi- dld ho- bn|fi- dl- dik ge- fi- dld ho- bn|zei.|
V:3
 CC | AFFF FF=EF | G=EEE EECC | F=EFG AGAB | AA- A4 AB | ccdc BBGA | BBcB AAFG | A2 GF G2 F=E | %8
w: Ahz der|Reb- be E- li- me- lech iz ge-|vo- rn ze- ir frei- lach, iz ge-|vo- rn ze- ir frei- lach E- li-|me- lech, _ Hot er|op- ge- macht Hav- do- le mit dem|sha- mes Reb Naf- to- le, Un ge-|shikt noch di fid- ler di|
 F8 | z8 | z4 z ccc | cccc dddd | ecAG AdcB | AABA GG=EF | G4 z AAc | ff=ed eedc | c4 z CCC | %17
w: tzvei.||Un az di|fi- dl- di- ke fid- ler ho- bn|fi- dl- dik ge- fi- dlt, ho- bn|fi- dl- dik ge- fi- dlt ho- bn|zei. Un az di|fi- dl- dik ge- fi- dlt ho- bn|zei. Un az der|
 AFFF FF=EF | G=EEE EECC | F=EFG AGAB | AA- A4 AB | ccdc BBGA | BBcB AAFG | A2 GF G2 F=E | F8 | %25
w: Reb- be E- li- me- lech iz ge-|vo- rn gor shtark frei- lach, iz ge-|vo- rn gor shtark frei- lach E- li-|me- lech, _ Hat er|ois- ge- tan dem ki- tl, un hot|on- ge- ton dos hi- tl, un ge-|shikt noch di paik- ler di-|tzvei.|
 z8 | z4 z ccc | cccc dddd | ecAG AdcB | AABA GG=EF | G4 z AAc | ff=ed eedc | c4 z CCC | %33
w: |Un az di|pai- kl- di- ke paik- ler ho- bn|pai- kl- dik ge- pai- kld, ho- bn|pai- kl- dik ge- pai- kld ho- bn|zei. Un az di|pai- kl- dik ge- pai- kld ho- bn|zei. Un az der|
 AFFF FF=EF | G=EEE EECC | F=EFG AGAB | AA- A4 AB | ccdc BBGA | BBcB AAFG | A2 GF G2 F=E | F8 | %41
w: Reb- be E- li- me- lech iz ge-|vo- rn gor shtark frei- lach, iz ge-|vo- rn gor shtark frei- lach E- li-|me- lech, _ Hat er|ois- ge- tan dem ki- tl, un hot|on- ge- ton dos hi- tl, un ge-|shikt noch di fid- ler di-|tzvei.|
 cc/c/ c ccc/c/cc | cc/c/cccc/c/cc | cc/c/ccdd/d/dd | e2 e2 e2 z2 | ee/e/ee=ee/e/ee | %46
w: Pom- pa- ta pom pom _ _ _ _ _|_ _ _ _ _ _ _ _ _ _||||
 =ee/e/eeff/f/ff | ff/f/ff=ee/e/ee | fdcA F2 z |] %49
w: ||pom pom pom pom pom|
V:4
 C,C, | A,F,F,F, F,F,=E,F, | G,=E,E,E, E,E,C,C, | F,=E,F,G, A,G,A,B, | A,A,- A,4 A,B, | %5
w: Ahz der|Reb- be E- li- me- lech iz ge-|vo- rn ze- ir frei- lach, iz ge-|vo- rn ze- ir frei- lach E- li-|me- lech, _ Hot er|
 CCDC B,B,G,A, | B,B,CB, A,A,F,G, | A,2 G,F, G,2 F,=E, | F,2 C,2 F,,4 | z8 | z8 | z4 z C,C,C, | %12
w: op- ge- macht Hav- do- le mit dem|sha- mes Reb Naf- to- le, Un ge-|shikt noch di fid- ler di|tzvei. di tzvei.|||Un az di|
 A,E,E,E, E,E,C,D, | E,E,F,E, C,C,C,C, | C,C,C,C, F,F,F,F, | A,4 z G,G,G, | A,2 G,2 F,C,C,C, | %17
w: fi- dl- di- ke fid- ler ho- bn|fi- dl- dik ge- fi- dlt, ho- bn|fi- dl- dik ge- fi- dlt ho- bn|zei. Un az di|tzvei. di tzvei. Un az der|
 A,F,F,F, F,F,=E,F, | G,=E,E,E, E,E,C,C, | F,=E,F,G, A,G,A,B, | A,A,- A,4 A,B, | CCDC B,B,G,A, | %22
w: Reb- be E- li- me- lech iz ge-|vo- rn gor shtark frei- lach, iz ge-|vo- rn gor shtark frei- lach E- li-|me- lech, _ Hat er|ois- ge- tan dem ki- tl, un hot|
 B,B,CB, A,A,F,G, | A,2 G,F, G,2 F,=E, | F,2 C,2 F,,4 | z8 | z8 | z4 z C,C,C, | A,E,E,E, E,E,C,D, | %29
w: on- ge- ton dos hi- tl, un ge-|shikt noch di paik- ler di-|tzvei. di- tzvei.|||Un az di|pai- kl- di- ke paik- ler ho- bn|
 E,E,F,E, C,C,C,C, | C,C,C,C, F,F,F,F, | A,4 z G,G,G, | A,2 G,2 F,C,C,C, | A,F,F,F, F,F,=E,F, | %34
w: pai- kl- dik ge- pai- kld, ho- bn|pai- kl- dik ge- pai- kld ho- bn|zei. Un az di|tzvei. di- tzvei. Un az der|Reb- be E- li- me- lech iz ge-|
 G,=E,E,E, E,E,C,C, | F,=E,F,G, A,G,A,B, | A,A,- A,4 A,B, | CCDC B,B,G,A, | B,B,CB, A,A,F,G, | %39
w: vo- rn gor shtark frei- lach, iz ge-|vo- rn gor shtark frei- lach E- li-|me- lech, _ Hat er|ois- ge- tan dem ki- tl, un hot|on- ge- ton dos hi- tl, un ge-|
 A,2 G,F, G,2 F,=E, | F,2 C,2 F,,4 | F,2 F,F, F,2 F,2 | C,2 C,C, C,2 C,2 | F,2 F,F, D,2 D,D, | %44
w: shikt noch di fid- ler di-|tzvei. di- tzvei.|Dom da da dom dom|_ _ _ _ _||
 A,2 E,2 A,,2 z2 | A,2 A,A, G,2 G,2 | =E,2 E,E, F,2 D,2 | C,2 C,C, C,2 C,2 | F,2 C,2 F,,2 z |] %49
w: ||||dom dom dom|

